svg/sign-in.svg

<svg xmlns="http://www.w3.org/2000/svg" width="100" height="100" viewBox="0 0 100 100"><path d="M31.341 49.925h-28.51v-11.407h28.51v-11.406l17.113 17.112-17.113 17.106v-11.405zm57.032-45.625v74.14l-34.217 17.115v-17.115h-34.22v-22.813h5.708v17.109h28.514v-51.324l22.812-11.408h-51.328v22.812h-5.708v-28.516h68.439z"/></svg>

<?xml version="1.0" encoding="utf-8"?>
<!-- Generator: Adobe Illustrator 16.0.4, SVG Export Plug-In . SVG Version: 6.00 Build 0)  -->
<!DOCTYPE svg PUBLIC "-//W3C//DTD SVG 1.1//EN" "http://www.w3.org/Graphics/SVG/1.1/DTD/svg11.dtd">
<svg version="1.1" id="Layer_1" xmlns="http://www.w3.org/2000/svg" xmlns:xlink="http://www.w3.org/1999/xlink" x="0px" y="0px"
	 width="100px" height="100px" viewBox="0 0 100 100" enable-background="new 0 0 100 100" xml:space="preserve">
<path d="M31.341,49.925H2.831V38.518h28.51V27.112l17.113,17.112L31.341,61.33V49.925z M88.373,4.3V78.44L54.156,95.555V78.44
	h-34.22V55.627h5.708v17.109h28.514V21.412l22.812-11.408H25.642v22.812h-5.708V4.3H88.373z"/>
</svg>
